src/icons/modernizr.svg

<svg viewBox="0 0 24 24" xmlns="http://www.w3.org/2000/svg">
  <path
    d="M2 16.8V13.6H5.2V10.4H8.4V7.20001H11.6V16.8H2ZM12.4 7.20001C13.6607 7.20001 14.909 7.44832 16.0738 7.93077C17.2385 8.41321 18.2968 9.12034 19.1882 10.0118C20.0797 10.9032 20.7868 11.9615 21.2692 13.1263C21.7517 14.291 22 15.5393 22 16.8H12.4V7.20001Z"
    fill="#E91E63"
  />
</svg>

<svg
  xmlns="http://www.w3.org/2000/svg"
  viewBox="0 0 24 24"
  xml:space="preserve"
>
  <path
    fill="#E91E63"
    d="M2 16.8v-3.2h3.2v-3.2h3.2V7.2h3.2v9.6zm10.4-9.6a9.6 9.6 0 0 1 9.6 9.6h-9.6V7.2z"
  />
</svg>
